flaticon/constructions/gas-pipe-5.svg

<svg xmlns="http://www.w3.org/2000/svg" width="32" height="32" viewBox="0 0 24 24">
    <path d="M4.980469 5.199219L8.179688 5.199219C8.421875 5.199219 8.578125 5.039062 8.578125 4.800781L8.578125 2C8.578125 1.761719 8.421875 1.601562 8.179688 1.601562L4.980469 1.601562C4.738281 1.601562 4.578125 1.761719 4.578125 2L4.578125 4.800781C4.578125 5.039062 4.738281 5.199219 4.980469 5.199219zM5.378906 2.398438L7.78125 2.398438 7.78125 4.398438 5.378906 4.398438zM17.78125 5.199219L20.980469 5.199219C21.21875 5.199219 21.378906 5.039062 21.378906 4.800781L21.378906 2C21.378906 1.761719 21.21875 1.601562 20.980469 1.601562L17.78125 1.601562C17.539062 1.601562 17.378906 1.761719 17.378906 2L17.378906 4.800781C17.378906 5.039062 17.539062 5.199219 17.78125 5.199219zM18.179688 2.398438L20.578125 2.398438 20.578125 4.398438 18.179688 4.398438zM18.179688 2.398438"/>
    <path d="M11.699219 9.71875C11.378906 9.519531 10.980469 9.519531 10.660156 9.679688 10.5 9.757812 10.339844 9.824219 10.179688 9.890625L10.179688.398438C10.179688.160156 10.019531 0 9.78125 0 9.539062 0 9.378906.160156 9.378906.398438L9.378906 7.199219 3.78125 7.199219 3.78125.398438C3.78125.160156 3.621094 0 3.378906 0 3.140625 0 2.980469.160156 2.980469.398438L2.980469 9.917969C2.832031 9.859375 2.683594 9.792969 2.539062 9.71875 2.21875 9.558594 1.820312 9.558594 1.5 9.761719 1.179688 9.960938.980469 10.320312.980469 10.679688L.980469 13.320312C.980469 13.679688 1.179688 14 1.5 14.199219 1.660156 14.320312 1.859375 14.359375 2.058594 14.359375 2.21875 14.359375 2.378906 14.320312 2.5 14.28125 2.65625 14.203125 2.816406 14.128906 2.980469 14.066406L2.980469 23.601562C2.980469 23.839844 3.140625 24 3.378906 24 3.621094 24 3.78125 23.839844 3.78125 23.601562L3.78125 16 9.378906 16 9.378906 23.601562C9.378906 23.839844 9.539062 24 9.78125 24 10.019531 24 10.179688 23.839844 10.179688 23.601562L10.179688 14.066406C10.34375 14.128906 10.503906 14.203125 10.660156 14.28125 10.820312 14.359375 10.980469 14.398438 11.140625 14.398438 11.300781 14.398438 11.5 14.320312 11.699219 14.199219 12.019531 14 12.21875 13.640625 12.21875 13.28125L12.21875 10.640625C12.21875 10.238281 12.019531 9.921875 11.699219 9.71875zM5.984375 13.128906C5.980469 13.082031 5.964844 13.039062 5.941406 13L5.421875 12 6.019531 10.800781 7.140625 10.800781 7.738281 12 7.140625 13.199219 6.019531 13.199219zM9.378906 8L9.378906 10.152344C9.238281 10.1875 9.097656 10.222656 8.953125 10.246094 8.644531 10.304688 8.328125 10.34375 8 10.355469 7.996094 10.355469 7.988281 10.355469 7.984375 10.355469 7.921875 10.359375 7.863281 10.359375 7.800781 10.359375L7.738281 10.238281C7.660156 10.078125 7.539062 10 7.378906 10L5.78125 10C5.621094 10 5.5 10.121094 5.421875 10.238281L5.359375 10.359375C4.847656 10.359375 4.292969 10.277344 3.78125 10.160156L3.78125 8zM2.140625 13.558594C2.019531 13.640625 1.941406 13.601562 1.898438 13.558594 1.859375 13.519531 1.78125 13.441406 1.78125 13.320312L1.78125 10.679688C1.78125 10.519531 1.859375 10.441406 1.898438 10.441406 1.941406 10.441406 1.980469 10.398438 2.058594 10.398438 2.101562 10.398438 2.140625 10.398438 2.101562 10.441406 2.980469 10.878906 3.941406 11.160156 4.898438 11.199219L4.578125 11.839844C4.539062 11.960938 4.539062 12.078125 4.578125 12.199219L4.882812 12.765625C4.339844 12.808594 3.800781 12.925781 3.261719 13.078125 3.226562 13.097656 3.191406 13.117188 3.164062 13.140625 2.816406 13.253906 2.476562 13.390625 2.140625 13.558594zM9.378906 15.199219L3.78125 15.199219 3.78125 13.804688C3.847656 13.785156 3.917969 13.769531 3.988281 13.753906 4.371094 13.675781 4.757812 13.617188 5.164062 13.605469 5.167969 13.605469 5.171875 13.605469 5.175781 13.605469 5.222656 13.601562 5.269531 13.601562 5.320312 13.601562L5.421875 13.800781C5.5 13.921875 5.621094 14 5.78125 14L7.378906 14C7.539062 14 7.660156 13.878906 7.738281 13.800781L7.839844 13.601562C8.289062 13.605469 8.761719 13.667969 9.214844 13.761719 9.269531 13.777344 9.324219 13.789062 9.378906 13.804688zM11.378906 13.320312C11.378906 13.480469 11.300781 13.519531 11.261719 13.558594 11.261719 13.558594 11.140625 13.601562 11.019531 13.558594 10.632812 13.367188 10.230469 13.210938 9.820312 13.09375 9.292969 12.914062 8.765625 12.839844 8.238281 12.800781L8.398438 12.480469 8.578125 12.160156C8.621094 12.039062 8.621094 11.921875 8.578125 11.800781L8.261719 11.199219C9.21875 11.121094 10.140625 10.878906 11.019531 10.441406 11.140625 10.359375 11.21875 10.398438 11.261719 10.441406 11.300781 10.480469 11.378906 10.558594 11.378906 10.679688zM23.019531.398438C23.019531.160156 22.859375 0 22.621094 0 22.378906 0 22.21875.160156 22.21875.398438L22.21875 7.601562 21.820312 7.601562C21.859375 7.359375 21.78125 7.121094 21.660156 6.921875 21.609375 6.839844 21.550781 6.765625 21.480469 6.703125 21.273438 6.488281 20.988281 6.359375 20.699219 6.359375L18.058594 6.359375C17.660156 6.359375 17.339844 6.558594 17.140625 6.878906 17.003906 7.097656 16.960938 7.355469 16.996094 7.601562L16.578125 7.601562 16.578125.398438C16.578125.160156 16.421875 0 16.179688 0 15.941406 0 15.78125.160156 15.78125.398438L15.78125 15.824219C15.753906 15.875 15.738281 15.929688 15.738281 16L15.738281 23.601562C15.738281 23.839844 15.898438 24 16.140625 24 16.378906 24 16.539062 23.839844 16.539062 23.601562L16.539062 16.398438 16.941406 16.398438C16.898438 16.640625 16.980469 16.917969 17.101562 17.121094 17.300781 17.441406 17.660156 17.640625 18.019531 17.640625L20.660156 17.640625C20.925781 17.640625 21.152344 17.550781 21.335938 17.402344 21.457031 17.324219 21.566406 17.226562 21.660156 17.121094 21.796875 16.898438 21.839844 16.644531 21.800781 16.398438L22.179688 16.398438 22.179688 23.601562C22.179688 23.839844 22.339844 24 22.578125 24 22.820312 24 22.980469 23.839844 22.980469 23.601562L22.980469 8.113281C23 8.078125 23.011719 8.039062 23.019531 8zM20.421875 11.359375C20.441406 11.382812 20.464844 11.390625 20.492188 11.394531L20.578125 11.441406 20.578125 12.558594 20.476562 12.613281C20.457031 12.621094 20.4375 12.628906 20.421875 12.640625L19.398438 13.148438 18.378906 12.640625C18.332031 12.609375 18.28125 12.589844 18.226562 12.582031L18.179688 12.558594 18.179688 11.441406 18.25 11.402344C18.296875 11.398438 18.339844 11.386719 18.378906 11.359375L19.378906 10.839844zM20.898438 16.679688C20.859375 16.71875 20.78125 16.800781 20.660156 16.800781L18.019531 16.800781C17.859375 16.800781 17.78125 16.679688 17.78125 16.679688 17.78125 16.679688 17.765625 16.636719 17.761719 16.574219 17.765625 16.546875 17.769531 16.511719 17.78125 16.480469 17.8125 16.414062 17.847656 16.34375 17.882812 16.253906 17.902344 16.226562 17.921875 16.195312 17.941406 16.160156 18.296875 15.367188 18.535156 14.535156 18.578125 13.660156L19.179688 14C19.300781 14.039062 19.421875 14.039062 19.539062 14L20.140625 13.679688C20.210938 14.539062 20.414062 15.371094 20.769531 16.164062 20.773438 16.175781 20.777344 16.1875 20.78125 16.199219 20.820312 16.320312 20.859375 16.398438 20.898438 16.480469 20.929688 16.523438 20.941406 16.558594 20.945312 16.589844 20.941406 16.628906 20.917969 16.660156 20.898438 16.679688zM19.539062 10.039062C19.5 10 19.460938 10 19.378906 10 19.300781 10 19.261719 10 19.179688 10L18.578125 10.320312C18.507812 9.460938 18.308594 8.628906 17.949219 7.835938 17.945312 7.824219 17.945312 7.8125 17.941406 7.800781L17.929688 7.789062C17.917969 7.765625 17.90625 7.738281 17.894531 7.714844 17.882812 7.660156 17.851562 7.625 17.820312 7.558594 17.738281 7.441406 17.78125 7.359375 17.820312 7.320312 17.859375 7.28125 17.941406 7.199219 18.058594 7.199219L20.699219 7.199219C20.859375 7.199219 20.941406 7.320312 20.941406 7.320312 20.941406 7.320312 20.980469 7.441406 20.941406 7.558594 20.773438 7.894531 20.636719 8.238281 20.523438 8.59375 20.332031 9.164062 20.207031 9.75 20.179688 10.359375zM16.578125 15.601562L16.578125 8.398438 17.300781 8.398438C17.382812 8.59375 17.453125 8.789062 17.511719 8.988281 17.667969 9.511719 17.757812 10.046875 17.777344 10.597656 17.777344 10.605469 17.777344 10.613281 17.777344 10.621094 17.777344 10.660156 17.777344 10.699219 17.777344 10.742188L17.578125 10.839844C17.460938 10.921875 17.378906 11.039062 17.378906 11.199219L17.378906 12.800781C17.378906 12.960938 17.460938 13.078125 17.621094 13.160156L17.777344 13.238281C17.769531 14.050781 17.601562 14.859375 17.296875 15.601562zM21.492188 15.601562C21.1875 14.832031 21.023438 14.039062 21.019531 13.21875L21.140625 13.160156C21.300781 13.078125 21.378906 12.960938 21.378906 12.800781L21.378906 11.199219C21.378906 11.039062 21.261719 10.921875 21.140625 10.839844L20.980469 10.761719C20.980469 10.71875 20.980469 10.675781 20.984375 10.632812 20.984375 10.609375 20.984375 10.582031 20.984375 10.558594 20.988281 10.527344 20.988281 10.5 20.988281 10.472656 20.992188 10.4375 20.992188 10.402344 20.996094 10.371094 20.996094 10.351562 20.996094 10.335938 21 10.320312 21.003906 10.277344 21.007812 10.234375 21.011719 10.195312 21.011719 10.195312 21.011719 10.191406 21.011719 10.191406 21.070312 9.582031 21.21875 8.96875 21.460938 8.398438L22.179688 8.398438 22.179688 15.601562zM21.492188 15.601562"/>
</svg>

<svg xmlns="http://www.w3.org/2000/svg" width="32" height="32" viewBox="0 0 24 24">
    <path d="M4.98 5.2h3.2c.242 0 .398-.16.398-.4V2c0-.238-.156-.398-.398-.398h-3.2c-.242 0-.402.16-.402.398v2.8c0 .24.16.4.402.4zm.399-2.802H7.78v2H5.38zm0 0M17.781 5.2h3.2c.238 0 .398-.16.398-.4V2c0-.238-.16-.398-.399-.398h-3.199c-.242 0-.402.16-.402.398v2.8c0 .24.16.4.402.4zm.399-2.802h2.398v2H18.18zm0 0"/>
    <path d="M11.7 9.719c-.321-.2-.72-.2-1.04-.04-.16.079-.32.145-.48.212V.398C10.18.16 10.02 0 9.78 0 9.54 0 9.38.16 9.38.398V7.2H3.78V.4C3.781.16 3.621 0 3.38 0 3.14 0 2.98.16 2.98.398v9.52a4.936 4.936 0 0 1-.44-.2c-.321-.16-.72-.16-1.04.044-.32.199-.52.558-.52.918v2.64c0 .36.2.68.52.88.16.12.36.16.559.16.16 0 .32-.04.441-.079.156-.078.316-.152.48-.215v9.536c0 .238.16.398.399.398.242 0 .402-.16.402-.398V16H9.38v7.602c0 .238.16.398.402.398.239 0 .399-.16.399-.398v-9.536c.164.063.324.137.48.215.16.078.32.117.48.117.16 0 .36-.078.56-.199.32-.199.519-.558.519-.918v-2.64c0-.403-.2-.72-.52-.922zm-5.716 3.41A.297.297 0 0 0 5.941 13l-.52-1 .599-1.2h1.12l.598 1.2-.597 1.2H6.02zM9.38 8v2.152c-.14.036-.281.07-.426.094a6.296 6.296 0 0 1-.953.11h-.016c-.062.003-.12.003-.183.003l-.063-.12c-.078-.16-.199-.239-.36-.239H5.782c-.16 0-.281.121-.36.238l-.062.121a7.275 7.275 0 0 1-1.578-.199V8zM2.14 13.559c-.121.082-.2.043-.243 0-.039-.04-.117-.118-.117-.239v-2.64c0-.16.078-.239.117-.239.043 0 .082-.043.16-.043.044 0 .083 0 .044.043.878.438 1.84.72 2.796.758l-.32.64a.566.566 0 0 0 0 .36l.305.567a8.421 8.421 0 0 0-1.621.312.598.598 0 0 0-.098.063c-.348.113-.687.25-1.023.418zm7.238 1.64H3.78v-1.394c.067-.02.137-.035.207-.051.383-.078.77-.137 1.176-.149h.012c.047-.003.094-.003.144-.003l.102.199c.078.12.2.199.36.199h1.597c.16 0 .281-.121.36-.2l.1-.198c.45.003.923.066 1.376.16.055.015.11.027.164.043zm2-1.879c0 .16-.078.2-.117.239 0 0-.121.043-.242 0a7.114 7.114 0 0 0-1.2-.465c-.527-.18-1.054-.254-1.582-.293l.16-.32.18-.32a.517.517 0 0 0 0-.36l-.316-.602a7.493 7.493 0 0 0 2.758-.758c.12-.082.199-.043.242 0 .039.04.117.118.117.239zm0 0M23.02.398C23.02.16 22.86 0 22.62 0c-.242 0-.402.16-.402.398v7.204h-.399c.04-.243-.039-.48-.16-.68a.977.977 0 0 0-.18-.219 1.1 1.1 0 0 0-.78-.344h-2.641c-.399 0-.72.2-.918.52-.137.219-.18.476-.145.723h-.418V.398c0-.238-.156-.398-.398-.398-.239 0-.399.16-.399.398v15.426a.355.355 0 0 0-.043.176v7.602c0 .238.16.398.403.398.238 0 .398-.16.398-.398v-7.204h.402c-.043.243.04.52.16.723.2.32.56.52.919.52h2.64c.266 0 .492-.09.676-.239a1.6 1.6 0 0 0 .324-.28c.137-.224.18-.477.14-.724h.38v7.204c0 .238.16.398.398.398.242 0 .402-.16.402-.398V8.113A.39.39 0 0 0 23.02 8zM20.422 11.36c.02.024.043.032.07.036l.086.046v1.118l-.101.054c-.02.008-.04.016-.055.028l-1.024.507-1.02-.507a.364.364 0 0 0-.151-.059l-.047-.023V11.44l.07-.039a.254.254 0 0 0 .129-.043l1-.52zm.476 5.32c-.039.04-.117.122-.238.122h-2.64c-.16 0-.239-.121-.239-.121s-.015-.043-.02-.106c.005-.027.009-.062.02-.094.032-.066.067-.136.102-.226a.983.983 0 0 0 .058-.094c.356-.793.594-1.625.637-2.5l.602.34c.12.04.242.04.36 0l.6-.32c.07.86.274 1.691.63 2.484l.011.035c.04.121.078.2.117.281a.23.23 0 0 1 .047.11.153.153 0 0 1-.047.09zm-1.359-6.64C19.5 10 19.461 10 19.38 10h-.2l-.6.32a7.439 7.439 0 0 0-.63-2.484c-.004-.012-.004-.024-.008-.035l-.011-.012c-.012-.023-.024-.05-.035-.074-.012-.055-.043-.09-.075-.156-.082-.118-.039-.2 0-.239.04-.039.121-.12.239-.12h2.64c.16 0 .242.12.242.12s.04.121 0 .239a7.17 7.17 0 0 0-.418 1.035 6.432 6.432 0 0 0-.343 1.765zm-2.96 5.563V8.398h.722a6.39 6.39 0 0 1 .477 2.2v.144l-.2.098c-.117.082-.2.2-.2.36v1.6c0 .16.083.278.243.36l.156.078a6.415 6.415 0 0 1-.48 2.364zm4.913 0a6.508 6.508 0 0 1-.472-2.383l.12-.059c.16-.082.239-.2.239-.36v-1.6c0-.16-.117-.278-.238-.36l-.16-.078c0-.043 0-.086.003-.13v-.073c.004-.032.004-.059.004-.086.004-.036.004-.07.008-.102 0-.02 0-.035.004-.05l.012-.126v-.004c.058-.609.207-1.222.449-1.793h.719v7.204zm0 0"/>
</svg>
